svg/fluentui-system-icons/ic_fluent_pause_off_16_filled.svg

<svg width="16" height="16" viewBox="0 0 16 16" fill="none" xmlns="http://www.w3.org/2000/svg">
<path d="M13.1467 13.8538L14.1464 14.8536C14.3417 15.0488 14.6583 15.0488 14.8536 14.8536C15.0488 14.6583 15.0488 14.3417 14.8536 14.1464L1.85355 1.14645C1.65829 0.951184 1.34171 0.951184 1.14645 1.14645C0.951184 1.34171 0.951184 1.65829 1.14645 1.85355L2.14619 2.85329C2.05248 3.04911 2 3.26843 2 3.5V12.5C2 13.3284 2.67157 14 3.5 14H5.5C6.32843 14 7 13.3284 7 12.5V7.70711L9 9.70711V12.5C9 13.3284 9.67157 14 10.5 14H12.5C12.7316 14 12.9509 13.9475 13.1467 13.8538ZM9 6.87866L14 11.8787V3.5C14 2.67157 13.3284 2 12.5 2H10.5C9.67157 2 9 2.67157 9 3.5V6.87866ZM4.12134 2L7 4.87866V3.5C7 2.67157 6.32843 2 5.5 2H4.12134Z" fill="#212121"/>
</svg>

<svg xmlns="http://www.w3.org/2000/svg" width="16" height="16"><path d="m13.147 13.854 1 1a.5.5 0 0 0 .707-.708l-13-13a.5.5 0 1 0-.708.708l1 1A1.494 1.494 0 0 0 2 3.5v9A1.5 1.5 0 0 0 3.5 14h2A1.5 1.5 0 0 0 7 12.5V7.707l2 2V12.5a1.5 1.5 0 0 0 1.5 1.5h2c.232 0 .45-.053.647-.146ZM9 6.879l5 5V3.5A1.5 1.5 0 0 0 12.5 2h-2A1.5 1.5 0 0 0 9 3.5v3.379ZM4.121 2 7 4.879V3.5A1.5 1.5 0 0 0 5.5 2H4.121Z"/></svg>
